X: 2113
T: PUSH ABOUT THE JORUM
C:
Q: "Reel."
R: Reel.
%R: reel
B: James Kerr "Merry Melodies" v.2 p.14 #113
Z: 2016 John Chambers <jc:trillian.mit.edu>
M: C
L: 1/8
K: G
ue !segno!|\
dGBG FAAc | BGBd g2(fe) |\
dGBG FAAc | BGAF G3 :|\
uf |\
g2(fg) afed | ggfg a2(df) |
g2(fg) afed | egfa g3d |\
g2(fg) afed | g/g/g (fg) a3f |\
ggfg afed | egfa gbeg |]
